X: 1
T: Long Acre, The
M: 4/4
L: 1/8
R: reel
K: Dmaj
FE |: D2dB AGFE  | DFdF A2FE | D2dB AGFD ! GABG E2FE !  D2dB AGFE | DFdF A2Bc | dBcA BGAF | GABG E2 FE :|
efga fdcd | f2ga fdcA | f2ga fdcd | A (3Bcd e fg2a |
gfga fdcd | efga fgg2 | fg (3gfe fdec | AFGA BGE2 |
efga fdcd | f2ga fdcA | f2ga fdcd | A (3Bcd e fg2a |
gfga fdcd | efga fgg2 | fg (3agf gefa | ecdB AFG2 |
